assets/Judge/Medium/Flat/judge_flat_medium.svg

<svg width="32" height="32" viewBox="0 0 32 32" fill="none" xmlns="http://www.w3.org/2000/svg">
<path d="M23 30L25 24L23 18.5H9L7 24L9 30H23Z" fill="#212121"/>
<path d="M23 30V18.5935C21.6303 21.0539 19.0178 22.72 16 22.72C12.9833 22.72 10.3625 21.0551 9.00005 18.5961V30H5.00005V26.5C4.99005 23.09 6.57005 20.03 9.00005 18V18.0128C10.9012 16.4481 13.3391 15.5 16 15.5C18.661 15.5 21.0989 16.4388 23 18.0118V18C25.45 20.02 27 23.09 27 26.5V30H23Z" fill="black"/>
<path d="M12.5 29.99V24.74C12.5 24.46 12.28 24.24 12 24.24C11.72 24.24 11.5 24.46 11.5 24.74V29.99H12.5Z" fill="black"/>
<path d="M16.5 29.99V24.74C16.5 24.46 16.28 24.24 16 24.24C15.72 24.24 15.5 24.46 15.5 24.74V29.99H16.5Z" fill="black"/>
<path d="M20.5 29.99V24.74C20.5 24.46 20.28 24.24 20 24.24C19.72 24.24 19.5 24.46 19.5 24.74V29.99H20.5Z" fill="black"/>
<path d="M16.9201 19.69L16.2701 20.27C16.1101 20.41 15.8801 20.41 15.7201 20.27L15.0701 19.69C14.3501 19.04 13.9301 18.11 13.9301 17.14V14.05C13.9401 12.92 14.8601 12 16.0001 12C17.1401 12 18.0601 12.92 18.0601 14.06V17.15C18.0501 18.12 17.6401 19.04 16.9201 19.69Z" fill="#9B9B9B"/>
<path d="M18.0499 15.21H15.9999H13.9399V17.15C13.9399 18.12 14.3499 19.05 15.0799 19.7C15.1499 19.76 15.2599 19.75 15.3199 19.67L15.8999 18.83C15.9499 18.75 16.0699 18.75 16.1199 18.83L16.6999 19.67C16.7499 19.75 16.8599 19.76 16.9399 19.7C17.6599 19.05 18.0799 18.12 18.0799 17.15V15.21H18.0499Z" fill="#E6E6E6"/>
<path d="M26.9946 23C27.552 23 28 23.4073 28 23.9139V26H26.0002V23.9139C25.9893 23.4073 26.4373 23 26.9946 23Z" fill="#BB806E"/>
<path d="M22.62 20.99C22.16 20.99 21.78 20.62 21.78 20.15V17.82C21.78 17.36 22.15 16.98 22.62 16.98C23.08 16.98 23.46 17.35 23.46 17.82V18L23.4601 17.5C23.4601 17.22 23.6901 17 23.9601 17H26.8401C27.1101 17 27.3301 17.22 27.3401 17.5V17.6899C27.4021 17.2905 27.7452 16.98 28.1701 16.98C28.6301 16.98 29.0101 17.35 29.0101 17.82V20.15C29.0001 20.62 28.6301 20.99 28.1701 20.99C27.7537 20.99 27.4029 20.6869 27.3401 20.2808V20.5C27.3401 20.78 27.1101 21 26.8401 21H26.32C26.5505 21.047 26.7188 21.2531 26.7101 21.49C26.7101 21.77 26.4901 21.99 26.2101 21.99H26.1401V27.37H24.6401V21.99H24.5701C24.2901 21.99 24.0701 21.77 24.0701 21.49C24.0701 21.245 24.2385 21.046 24.4681 21H23.9601C23.6801 21 23.4601 20.77 23.4601 20.5V20L23.46 20.15C23.46 20.62 23.08 20.99 22.62 20.99Z" fill="#7D4533"/>
<path d="M24.2018 24.5105C23.8284 24.5105 23.5096 24.8457 23.5005 25.2752C23.4913 25.5581 23.6189 25.8095 23.8101 25.9562C23.628 26.0924 23.5005 26.3333 23.5005 26.6057C23.5005 26.8781 23.6189 27.119 23.8101 27.2552C23.628 27.3914 23.5005 27.6324 23.5005 27.9048C23.5005 28.1771 23.6189 28.4181 23.8101 28.5543C23.6189 28.701 23.5005 28.9524 23.5005 29.2352C23.5096 29.6648 23.8284 30 24.2018 30H27.2076C27.6448 30 28 29.5914 28 29.0886V25.4114C28 24.9086 27.6448 24.5 27.2076 24.5H24.2018V24.5105Z" fill="#C68D7B"/>
<path d="M16 18.5C14.8932 18.5 14 17.5345 14 16.3381V13.6514C14 12.4655 14.8932 11.5 16 11.5C17.1068 11.5 18 12.4655 18 13.6619V16.3486C17.9903 17.5345 17.0971 18.5 16 18.5Z" fill="#B87A66"/>
<path d="M22.25 5.29C21.95 4.77 21.48 4.41 20.96 4.23C20.39 4.04 19.89 3.66 19.58 3.15C19.16 2.46 18.4 2 17.54 2C17.21 2 16.89 2.07 16.61 2.19C16.22 2.36 15.78 2.36 15.39 2.19C15.1 2.07 14.79 2 14.46 2C13.61 2 12.86 2.44 12.44 3.11C12.11 3.63 11.62 4.03 11.03 4.23C10.48 4.42 10 4.81 9.71004 5.36C9.28004 6.16 9.37004 7.12 9.86004 7.83C10.03 8.09 10.13 8.4 10.13 8.71V12.88C10.13 13.81 10.72 14.63 11.6 14.94L13.49 15.59V8.17C13.64 8.03 13.76 7.86 13.87 7.67C14.04 7.38 14.14 7.06 14.17 6.75C14.26 6.76 14.36 6.77 14.45 6.77C15.04 6.77 15.58 6.56 15.99 6.2C16.41 6.55 16.94 6.77 17.53 6.77C17.63 6.77 17.72 6.76 17.81 6.75C17.85 7.07 17.94 7.38 18.11 7.67C18.22 7.86 18.35 8.02 18.49 8.17V15.6L20.38 14.95C21.26 14.65 21.85 13.82 21.85 12.89V8.72C21.85 8.41 21.95 8.1 22.13 7.84C22.65 7.1 22.72 6.11 22.25 5.29Z" fill="#593B39"/>
<path d="M12.7701 10.5899C12.7701 11.5122 12.0224 12.2599 11.1001 12.2599C10.1777 12.2599 9.43005 11.5122 9.43005 10.5899C9.43005 9.66761 10.1777 8.91992 11.1001 8.91992C12.0224 8.91992 12.7701 9.66761 12.7701 10.5899Z" fill="#BB806E"/>
<path d="M22.5601 10.5899C22.5601 11.5122 21.8124 12.2599 20.8901 12.2599C19.9678 12.2599 19.2201 11.5122 19.2201 10.5899C19.2201 9.66761 19.9678 8.91992 20.8901 8.91992C21.8124 8.91992 22.5601 9.66761 22.5601 10.5899Z" fill="#BB806E"/>
<path d="M10.833 7.96778C10.9078 6.15342 12.4077 4.69995 14.2401 4.69995H15.5401C15.8201 4.69995 16.0601 4.86995 16.1701 5.11995C16.5701 6.00995 17.4601 6.56995 18.4301 6.56995H19.8601C20.6601 6.60995 21.2901 7.27995 21.2701 8.08995L21.2581 8.60501L20.95 13.56C20.68 15.53 19.01 17 17.02 17H15.12C13.14 17 11.46 15.53 11.2 13.56L10.833 7.96778Z" fill="#C68D7B"/>
<path d="M12.284 8.41831C12.3767 8.53732 12.5482 8.55885 12.6675 8.46667L12.6684 8.46597L12.7631 8.40386C12.8319 8.36256 12.9353 8.30712 13.0681 8.25468C13.3337 8.14979 13.7127 8.05839 14.168 8.11196C14.3182 8.12963 14.4543 8.02217 14.472 7.87194C14.4897 7.7217 14.3822 7.58558 14.232 7.56791C13.6673 7.50148 13.1963 7.61507 12.8669 7.74518C12.7021 7.81025 12.5718 7.8798 12.4813 7.93413L12.3316 8.0339C12.2123 8.12689 12.191 8.299 12.284 8.41831Z" fill="#593B39"/>
<path d="M19.6765 8.03241L19.6783 8.03376C19.7976 8.12675 19.8191 8.299 19.7261 8.41831C19.6333 8.53732 19.4611 8.55826 19.3419 8.4661L19.3397 8.46453C19.3366 8.4622 19.3309 8.45812 19.3229 8.45256C19.3068 8.44144 19.2813 8.42447 19.247 8.40386C19.1781 8.36256 19.0747 8.30712 18.9419 8.25468C18.6764 8.14979 18.2974 8.05839 17.8421 8.11196C17.6918 8.12963 17.5557 8.02217 17.538 7.87194C17.5204 7.7217 17.6278 7.58558 17.7781 7.56791C18.3427 7.50148 18.8137 7.61507 19.1432 7.74518C19.3079 7.81025 19.4382 7.8798 19.5288 7.93413C19.5741 7.96133 19.6097 7.98483 19.6348 8.00223L19.6736 8.03016L19.6765 8.03241Z" fill="#593B39"/>
<path d="M12.18 10.28C12.33 9.65995 12.89 9.19995 13.56 9.19995C14.26 9.19995 14.83 9.68995 14.96 10.35C14.99 10.5 14.88 10.63 14.73 10.63H12.45C12.27 10.63 12.13 10.45 12.18 10.28Z" fill="white"/>
<path d="M19.83 10.28C19.68 9.65995 19.12 9.19995 18.45 9.19995C17.75 9.19995 17.18 9.68995 17.05 10.35C17.02 10.5 17.13 10.63 17.28 10.63H19.56C19.74 10.63 19.87 10.46 19.83 10.28Z" fill="white"/>
<path d="M12.8601 10.39C12.8601 9.88998 13.2701 9.47998 13.7701 9.47998C14.2801 9.47998 14.6901 9.88998 14.6801 10.39C14.6801 10.47 14.6701 10.55 14.6501 10.63H12.8901C12.8701 10.55 12.8601 10.47 12.8601 10.39Z" fill="#7D4533"/>
<path d="M19.1501 10.39C19.1501 9.88998 18.7401 9.47998 18.2401 9.47998C17.7301 9.47998 17.3301 9.88998 17.3301 10.39C17.3301 10.47 17.3401 10.55 17.3601 10.63H19.1201C19.1401 10.55 19.1501 10.47 19.1501 10.39Z" fill="#7D4533"/>
<path d="M13.77 9.87012C14.06 9.87012 14.29 10.1001 14.29 10.3901C14.29 10.4801 14.27 10.5601 14.23 10.6301H13.31C13.27 10.5601 13.25 10.4801 13.25 10.3901C13.25 10.1001 13.48 9.87012 13.77 9.87012Z" fill="black"/>
<path d="M18.2401 9.87012C17.9501 9.87012 17.7201 10.1001 17.7201 10.3901C17.7201 10.4801 17.7401 10.5601 17.7801 10.6301H18.7001C18.7401 10.5601 18.7601 10.4801 18.7601 10.3901C18.7601 10.1001 18.5301 9.87012 18.2401 9.87012Z" fill="black"/>
<path d="M13.62 10.0301C13.62 10.1185 13.5484 10.1901 13.46 10.1901C13.3717 10.1901 13.3 10.1185 13.3 10.0301C13.3 9.94175 13.3717 9.87012 13.46 9.87012C13.5484 9.87012 13.62 9.94175 13.62 10.0301Z" fill="white"/>
<path d="M18.12 10.0301C18.12 10.1185 18.0484 10.1901 17.96 10.1901C17.8717 10.1901 17.8 10.1185 17.8 10.0301C17.8 9.94175 17.8717 9.87012 17.96 9.87012C18.0484 9.87012 18.12 9.94175 18.12 10.0301Z" fill="white"/>
<path d="M15.6901 10.3099L15.1601 12.0199C15.0501 12.3699 15.3101 12.7299 15.6801 12.7299H16.4601C16.8301 12.7299 17.0901 12.3699 16.9801 12.0199L16.4501 10.3099C16.3401 9.9299 15.8101 9.9299 15.6901 10.3099Z" fill="#AB6A55"/>
<path d="M16.01 13.6801C15.47 13.6801 14.96 13.5501 14.53 13.3201C14.38 13.2401 14.23 13.4101 14.32 13.5501C14.68 14.1001 15.3 14.4701 16.01 14.4701C16.72 14.4701 17.34 14.1001 17.7 13.5501C17.79 13.4101 17.63 13.2501 17.49 13.3201C17.05 13.5501 16.55 13.6801 16.01 13.6801Z" fill="#990838"/>
</svg>

<svg xmlns="http://www.w3.org/2000/svg" width="32" height="32" fill="none"><path fill="#212121" d="m23 30 2-6-2-5.5H9L7 24l2 6h14Z"/><path fill="#000" d="M23 30V18.593c-1.37 2.46-3.982 4.127-7 4.127a7.99 7.99 0 0 1-7-4.124V30H5v-3.5c-.01-3.41 1.57-6.47 4-8.5v.013a10.982 10.982 0 0 1 7-2.513c2.661 0 5.099.939 7 2.512V18c2.45 2.02 4 5.09 4 8.5V30h-4Z"/><path fill="#000" d="M12.5 29.99v-5.25c0-.28-.22-.5-.5-.5s-.5.22-.5.5v5.25h1ZM16.5 29.99v-5.25c0-.28-.22-.5-.5-.5s-.5.22-.5.5v5.25h1ZM20.5 29.99v-5.25c0-.28-.22-.5-.5-.5s-.5.22-.5.5v5.25h1Z"/><path fill="#9B9B9B" d="m16.92 19.69-.65.58c-.16.14-.39.14-.55 0l-.65-.58a3.449 3.449 0 0 1-1.14-2.55v-3.09A2.07 2.07 0 0 1 16 12c1.14 0 2.06.92 2.06 2.06v3.09c-.01.97-.42 1.89-1.14 2.54Z"/><path fill="#E6E6E6" d="M18.05 15.21H13.94v1.94c0 .97.41 1.9 1.14 2.55.07.06.18.05.24-.03l.58-.84a.13.13 0 0 1 .22 0l.58.84c.05.08.16.09.24.03.72-.65 1.14-1.58 1.14-2.55v-1.94h-.03Z"/><path fill="#BB806E" d="M26.995 23c.557 0 1.005.407 1.005.914V26h-2v-2.086c-.01-.507.437-.914.995-.914Z"/><path fill="#7D4533" d="M22.62 20.99c-.46 0-.84-.37-.84-.84v-2.33c0-.46.37-.84.84-.84.46 0 .84.37.84.84V18v-.5c0-.28.23-.5.5-.5h2.88c.27 0 .49.22.5.5v.19c.062-.4.405-.71.83-.71.46 0 .84.37.84.84v2.33a.839.839 0 0 1-1.67.13v.22c0 .28-.23.5-.5.5h-.52c.23.047.399.253.39.49 0 .28-.22.5-.5.5h-.07v5.38h-1.5v-5.38h-.07c-.28 0-.5-.22-.5-.5 0-.245.168-.444.398-.49h-.508c-.28 0-.5-.23-.5-.5V20v.15c0 .47-.38.84-.84.84Z"/><path fill="#C68D7B" d="M24.202 24.51c-.374 0-.692.336-.702.765a.825.825 0 0 0 .31.681.814.814 0 0 0-.31.65c0 .272.119.513.31.65a.814.814 0 0 0-.31.649c0 .272.119.513.31.65a.851.851 0 0 0-.31.68c.01.43.328.765.702.765h3.006c.437 0 .792-.409.792-.911V25.41c0-.502-.355-.911-.792-.911h-3.006v.01Z"/><path fill="#B87A66" d="M16 18.5c-1.107 0-2-.965-2-2.162v-2.687c0-1.185.893-2.151 2-2.151s2 .966 2 2.162v2.687c-.01 1.186-.903 2.151-2 2.151Z"/><path fill="#593B39" d="M22.25 5.29c-.3-.52-.77-.88-1.29-1.06a2.56 2.56 0 0 1-1.38-1.08 2.377 2.377 0 0 0-2.97-.96c-.39.17-.83.17-1.22 0-.29-.12-.6-.19-.93-.19-.85 0-1.6.44-2.02 1.11-.33.52-.82.92-1.41 1.12-.55.19-1.03.58-1.32 1.13-.43.8-.34 1.76.15 2.47.17.26.27.57.27.88v4.17c0 .93.59 1.75 1.47 2.06l1.89.65V8.17c.15-.14.27-.31.38-.5.17-.29.27-.61.3-.92a2.32 2.32 0 0 0 1.82-.55c.42.35.95.57 1.54.57.1 0 .19-.01.28-.02a2.373 2.373 0 0 0 .68 1.42v7.43l1.89-.65c.88-.3 1.47-1.13 1.47-2.06V8.72c0-.31.1-.62.28-.88.52-.74.59-1.73.12-2.55Z"/><path fill="#BB806E" d="M12.77 10.59a1.67 1.67 0 1 1-3.34 0 1.67 1.67 0 0 1 3.34 0ZM22.56 10.59a1.67 1.67 0 1 1-3.34 0 1.67 1.67 0 0 1 3.34 0Z"/><path fill="#C68D7B" d="M10.833 7.968A3.415 3.415 0 0 1 14.24 4.7h1.3c.28 0 .52.17.63.42.4.89 1.29 1.45 2.26 1.45h1.43c.8.04 1.43.71 1.41 1.52l-.012.515-.308 4.955A3.967 3.967 0 0 1 17.02 17h-1.9c-1.98 0-3.66-1.47-3.92-3.44l-.367-5.592Z"/><path fill="#593B39" d="M12.284 8.418c.093.12.264.14.383.049l.001-.001.095-.062a2.264 2.264 0 0 1 1.405-.292.274.274 0 0 0 .064-.544 2.812 2.812 0 0 0-1.75.366l-.15.1a.274.274 0 0 0-.048.384ZM19.677 8.032l.001.002a.274.274 0 0 1-.336.432l-.002-.001a2.092 2.092 0 0 0-.398-.21 2.264 2.264 0 0 0-1.1-.143.274.274 0 1 1-.064-.544 2.812 2.812 0 0 1 1.75.366c.046.027.082.05.107.068l.039.028.003.002Z"/><path fill="#fff" d="M12.18 10.28c.15-.62.71-1.08 1.38-1.08.7 0 1.27.49 1.4 1.15a.23.23 0 0 1-.23.28h-2.28c-.18 0-.32-.18-.27-.35ZM19.83 10.28c-.15-.62-.71-1.08-1.38-1.08-.7 0-1.27.49-1.4 1.15-.03.15.08.28.23.28h2.28c.18 0 .31-.17.27-.35Z"/><path fill="#7D4533" d="M12.86 10.39c0-.5.41-.91.91-.91a.9.9 0 0 1 .91.91c0 .08-.01.16-.03.24h-1.76a.986.986 0 0 1-.03-.24ZM19.15 10.39c0-.5-.41-.91-.91-.91-.51 0-.91.41-.91.91 0 .08.01.16.03.24h1.76c.02-.08.03-.16.03-.24Z"/><path fill="#000" d="M13.77 9.87a.516.516 0 0 1 .46.76h-.92a.516.516 0 0 1 .46-.76ZM18.24 9.87a.516.516 0 0 0-.46.76h.92a.516.516 0 0 0-.46-.76Z"/><path fill="#fff" d="M13.62 10.03a.16.16 0 1 1-.32 0 .16.16 0 0 1 .32 0ZM18.12 10.03a.16.16 0 1 1-.32 0 .16.16 0 0 1 .32 0Z"/><path fill="#AB6A55" d="m15.69 10.31-.53 1.71c-.11.35.15.71.52.71h.78c.37 0 .63-.36.52-.71l-.53-1.71c-.11-.38-.64-.38-.76 0Z"/><path fill="#990838" d="M16.01 13.68c-.54 0-1.05-.13-1.48-.36-.15-.08-.3.09-.21.23.36.55.98.92 1.69.92s1.33-.37 1.69-.92c.09-.14-.07-.3-.21-.23-.44.23-.94.36-1.48.36Z"/></svg>
